X:2
T:Tschigrun (Polka) G 5- (pk02286)
S:Hanny Christen. Bd.II  St. Gallen II, GraubÃ¼nden, Tessin. S.345 (pk02286) orig. C
S:BÃ¼ndner und Engadiner TÃ¤nze. S.330-349. Ãœberliefert durch Giacomin Morell, Ardez.
O:Switzerland
%%MIDI program 21
R:polka
M:4/4
L:1/8
K:G %%MIDI gchordon
((3DEF) |: !>!"G"G2!>!G2!>!G2 ((3BAG) | "D7"A2A2A2 ((3cBA) | "G"B2B2d2 cB |1 "D7"Ad/2d/2 ddd2 (3DEF :|2 "D7"Ad/2d/2 ddd2z2 || [M:3/8] 
"G"dBG | "C"ecA | "G"dBG | "D7"DD/2D/2D | "G"dBG | "C"ecA | "D7"B>AF | "G"G2z |] 
W:
W:il tschigrun (rÃ¤toroman.) - der Ziger (bzw. KÃ¤se - cheese)
% pk02286  
% Nov 12, 2016

